X:61
T:Hughie Travers'
Z: id:dc-jig-51
M:6/8
L:1/8
K:G Major
B|dBA B3|dBG ABA|GBd g3|edB Age|!
dBA B3|dBG ABA|GBd g3|edB G2:|!
A|Bdd edd|gdf edg|Bde g3|edB AGA|!
Bdd edd|gdf edg|Bde g3|edB G2:|!

